src/lib/packages/icons/src/assets/line/bookmark-user.svg

<svg width="24" height="24" viewBox="0 0 24 24" fill="none" xmlns="http://www.w3.org/2000/svg">
<path d="M16 2.25H8C5.582 2.25 4.25 3.582 4.25 6V21C4.25 21.268 4.39302 21.5149 4.62402 21.6479C4.74002 21.716 4.87 21.75 5 21.75C5.128 21.75 5.25707 21.717 5.37207 21.651L12 17.863L18.6279 21.65C18.8599 21.783 19.146 21.782 19.376 21.647C19.607 21.513 19.75 21.266 19.75 20.999V5.99902C19.75 3.58202 18.418 2.25 16 2.25ZM18.25 19.707L12.3721 16.349C12.1421 16.217 11.8579 16.217 11.6279 16.349L5.75 19.708V6C5.75 4.423 6.423 3.75 8 3.75H16C17.577 3.75 18.25 4.423 18.25 6V19.707ZM12 10.55C13.323 10.55 14.3999 9.47302 14.3999 8.15002C14.3999 6.82702 13.323 5.75 12 5.75C10.677 5.75 9.6001 6.82702 9.6001 8.15002C9.6001 9.47302 10.677 10.55 12 10.55ZM12 7.25C12.496 7.25 12.8999 7.65402 12.8999 8.15002C12.8999 8.64602 12.496 9.05005 12 9.05005C11.504 9.05005 11.1001 8.64602 11.1001 8.15002C11.1001 7.65402 11.504 7.25 12 7.25ZM15.75 14.197V14.5C15.75 14.914 15.414 15.25 15 15.25C14.586 15.25 14.25 14.914 14.25 14.5V14.197C14.25 13.477 13.7531 12.75 12.6421 12.75H11.3589C10.2479 12.75 9.75098 13.477 9.75098 14.197V14.5C9.75098 14.914 9.41498 15.25 9.00098 15.25C8.58698 15.25 8.25098 14.914 8.25098 14.5V14.197C8.25098 12.733 9.31789 11.25 11.3589 11.25H12.6421C14.6831 11.25 15.75 12.732 15.75 14.197Z" fill="currentColor"/>
</svg>

<svg xmlns="http://www.w3.org/2000/svg" width="24" height="24" fill="none"><path fill="currentColor" d="M16 2.25H8C5.582 2.25 4.25 3.582 4.25 6v15a.747.747 0 0 0 .75.75.749.749 0 0 0 .372-.099L12 17.863l6.628 3.787a.75.75 0 0 0 1.122-.651v-15c0-2.417-1.332-3.749-3.75-3.749Zm2.25 17.457-5.878-3.358a.749.749 0 0 0-.744 0L5.75 19.708V6c0-1.577.673-2.25 2.25-2.25h8c1.577 0 2.25.673 2.25 2.25v13.707ZM12 10.55c1.323 0 2.4-1.077 2.4-2.4s-1.077-2.4-2.4-2.4a2.403 2.403 0 0 0-2.4 2.4c0 1.323 1.077 2.4 2.4 2.4Zm0-3.3c.496 0 .9.404.9.9s-.404.9-.9.9a.901.901 0 0 1-.9-.9c0-.496.404-.9.9-.9Zm3.75 6.947v.303a.75.75 0 0 1-1.5 0v-.303c0-.72-.497-1.447-1.608-1.447H11.36c-1.111 0-1.608.727-1.608 1.447v.303a.75.75 0 0 1-1.5 0v-.303c0-1.464 1.067-2.947 3.108-2.947h1.283c2.041 0 3.108 1.482 3.108 2.947Z"/></svg>
